X: 5
T: Coen's Memories
R: reel
M: 4/4
L: 1/8
K: Edor
E3D EFGA |B2 ec dBAF |D3 F EFDE|FAFE EDFD|E3D EFGA |B2 ec dBAF |DEFA dBAF |1DEFD E2 ED :|


Tune 558	Setting 28973

